!!!OTL: Zerbrochenes Muehlenrad JUNGFRAEULEIN SOLL ICH MIT EUCH GEHN
!!!ARE: Europa, Mitteleuropa, Deutschland
!!!SCT: Z0081
!!!YEM: Copyright 1995, estate of Helmut Schaffrath.
**kern
*ICvox
*Ivox
*M4/4
*k[f#]
*G:
{4d
=1
4g
4g
4g
4g
=2
4a
4a
4a}
{4g
=3
4f#
4e
4f#
4d
=4
2g
4g}
{4d
=5
4g
4g
4g
4g
=6
4a
4a
4a}
{4g
=7
4f#
4e
4f#
4d
=8
2g
4g}
{4g
=9
4b
4b
4b
4b
=10
2cc
4cc}
{4b
=11
4a
4a
4a
4a
=12
2.dd}
{4g
=13
4dd
4dd
4dd
4dd
=14
2ee
4ee}
{4dd
=15
4cc
4b
4cc
4dd
=16
2.b}
==
!!!AGN: Sagen - Lied, Romanze, Tod
!!!ONB: ESAC (Essen Associative Code) Database: ZUCCAL
!!!AMT: simple quadruple
!!!AIN: vox
!!!EED: Helmut Schaffrath
!!!EEV: 1.0
*-
